X:1
T:Rid\'ee
R:rid\'ee
H:Also played in Em
O:Bretagne
D:Pennou Skolm
Z:id:hn-ridee-1
M:6/4
L:1/8
Q:1/4=200
K:Am
AeeA e2de fedc | BABc dedc (3Bcd cB |
AeeA e2de fedc | BABc ded2 (3Bcd cB ||
(3ABA EA Bc (3ABA FA Bc | (3ABA DA Bc dc Bd cB |
(3ABA EA Bc (3ABA FA Bc | A2 (3cBA Bc dc Bd cB ||

